X: 10951
T: Drummond Lasses, The
R: reel
M: 4/4
K: Gmajor
G2BG DGBG|G2BG FGAB|G2BG DGBG|1 cBAG EGGF:|2 cBAG EGGf||
gfed Bddf|gfed eaaf|gfed B2Ac|BGAG EGGf|
gfed Bddf|gfed eaaf|gfed efge|dcBA EGGF||

